sys/assets/icons/vector/23.svg

<?xml version="1.0" encoding="UTF-8" standalone="no"?>
<svg
   xmlns:dc="http://purl.org/dc/elements/1.1/"
   xmlns:cc="http://creativecommons.org/ns#"
   xmlns:rdf="http://www.w3.org/1999/02/22-rdf-syntax-ns#"
   xmlns:svg="http://www.w3.org/2000/svg"
   xmlns="http://www.w3.org/2000/svg"
   xmlns:sodipodi="http://sodipodi.sourceforge.net/DTD/sodipodi-0.dtd"
   xmlns:inkscape="http://www.inkscape.org/namespaces/inkscape"
   width="24"
   height="24"
   viewBox="0 0 24 24"
   version="1.1"
   id="svg8"
   sodipodi:docname="23.svg"
   inkscape:version="0.92.3 (unknown)">
  <metadata
     id="metadata14">
    <rdf:RDF>
      <cc:Work
         rdf:about="">
        <dc:format>image/svg+xml</dc:format>
        <dc:type
           rdf:resource="http://purl.org/dc/dcmitype/StillImage" />
        <dc:title></dc:title>
      </cc:Work>
    </rdf:RDF>
  </metadata>
  <defs
     id="defs12" />
  <sodipodi:namedview
     pagecolor="#ffffff"
     bordercolor="#666666"
     borderopacity="1"
     objecttolerance="10"
     gridtolerance="10"
     guidetolerance="10"
     inkscape:pageopacity="0"
     inkscape:pageshadow="2"
     inkscape:window-width="1920"
     inkscape:window-height="999"
     id="namedview10"
     showgrid="false"
     inkscape:zoom="8"
     inkscape:cx="-22.502778"
     inkscape:cy="9.9867324"
     inkscape:window-x="0"
     inkscape:window-y="0"
     inkscape:window-maximized="1"
     inkscape:current-layer="svg8" />
  <path
     d="M 0,0 H 24 V 24 H 0 Z M 0,0 H 24 V 24 H 0 Z m 21,19 c 0,1.1 -0.9,2 -2,2 H 5 C 3.9,21 3,20.1 3,19 V 5 C 3,3.9 3.9,3 5,3 h 14 c 1.1,0 2,0.9 2,2"
     id="path2"
     inkscape:connector-curvature="0"
     style="fill:none" />
  <path
     d="M 0,0 H 24 V 24 H 0 Z"
     id="path4"
     inkscape:connector-curvature="0"
     style="fill:none" />
  <path
     inkscape:connector-curvature="0"
     d="M 9,3 7.169922,5 H 4 C 2.9,5 2,5.9 2,7 v 2.316406 l 3.333984,3.34375 4.44336,-4.443359 4.445312,4.443359 4.44336,-4.455078 L 22,11.548828 V 7 C 22,5.9 21.1,5 20,5 H 16.830078 L 15,3 Z M 9.777344,11.349609 5.333984,15.794922 2,12.472656 V 19 c 0,1.1 0.9,2 2,2 h 16 c 1.1,0 2,-0.9 2,-2 v -4.294922 l -3.333984,-3.34375 -4.44336,4.433594 z"
     id="circle889" />
</svg>

<svg xmlns="http://www.w3.org/2000/svg" width="24" height="24"><path d="M0 0h24v24H0zm0 0h24v24H0zm21 19c0 1.1-.9 2-2 2H5c-1.1 0-2-.9-2-2V5c0-1.1.9-2 2-2h14c1.1 0 2 .9 2 2" fill="none"/><path d="M0 0h24v24H0z" fill="none"/><path d="M9 3L7.17 5H4c-1.1 0-2 .9-2 2v2.316l3.334 3.344 4.443-4.443 4.446 4.443 4.443-4.455L22 11.55V7c0-1.1-.9-2-2-2h-3.17L15 3zm.777 8.35l-4.443 4.445L2 12.473V19c0 1.1.9 2 2 2h16c1.1 0 2-.9 2-2v-4.295l-3.334-3.344-4.443 4.434z"/></svg>
